X:1
T:My Sheep Know My Voice
T:Isaiah G. Martin
T:My Sheep Know My Voice
T:Public Domain
T:Public Domain
T:Public Domain
C:Isaiah G. Martin
Z:Public Domain
%%score ( 1 2 ) ( 3 4 )
L:1/8
M:6/8
K:Bb
V:1 treble 
V:2 treble 
V:3 bass 
V:4 bass 
V:1
 [DF] | [DF][B,D][CE] [DF]2 [DF]/[DF]/ | [EG][B,E][EG] [DF]2 [DF] | [DF][CE][B,D] [CE][EG][CF] | %4
w: 1.~My|sheep hear My voice, and the|path that I take, They|fol- low wher- ev- er I|
w: 2.~My|sheep know My voice, and the|pas- tures of green, Where|I lead them so often to|
w: 3.~My|sheep know My voice, and the|val- ley of death Through|which I shall lead them some|
 [B,D]3- [B,D]2 ([DF]/[DF]/) | [DF][B,D][CE] [DF]2 ([DF]/[DF]/) | [EG][B,E][EG] [DF]2 [FB]/[FB]/ | %7
w: go; * My *|sheep know My voice and *|come at my call, But a|
w: feed; * My *|sheep know My voice and~the *|cool spark- ling stream Where be-|
w: day; * But *|no dan- ger nor harm *|can touch one of them, For|
 [FA][=EG][FA] [EB][EA][EB] | [Ec]3- [Ec]2 ||"^Refrain" [Fe] | (FFF) [Fd][Ec][DB] | %11
w: strang- er’s voice do they not|know. *|My|sheep * * know My voice,|
w: side its still wa- ters I|lead. *|||
w: I will be with them al-|way. *|||
 (D2 D [DF]2) [FB] | (EEE [EA][CE])[EG] | (D2 D [DF]2) [DF]/[DF]/ | (EEE G)A[EB] | %15
w: * * * day|day * * * * They|bide * * in the|and * * * * go|
w: ||||
w: ||||
 (DDD [DB]2) [DB] | (=EEE B)A[EB] | (FFF [Fc]2) [Fe] | (FFF [Fd])[Ec][Fd] | (DDD B)F[Fd] | %20
w: stray, * * * They|love * * * Me be-|have * * * made|my * * * choice, And|* * * * fol- low|
w: |||||
w: |||||
 (EEE [Ec])[DB][Ec] | (FFF d)B[Fd] | (_AAA f)e[Ad] | (GGG e)B[_Gc] | [Fd]3 [Fd]2 [Ec] | [DB]6 |] %26
w: for * * * My sheep|My * * * voice. *|||||
w: ||||||
w: ||||||
V:2
 x | x6 | x6 | x6 | x6 | x6 | x6 | x6 | x5 || x | d3- x3 | F3- x3 | A3- x3 | F3- x3 | G3- E2 x | %15
w: ||||||||||and|by|a-|fold|not a-|
 F3 x3 | B3- =E2 x | c3- x3 | d3- x3 | B3- D2 x | c3- x3 | d3- F2 x | f3 _A2 x | e3- _G2 x | x6 | %25
w: |cause I|them|they|My call|know|||||
 x6 |] %26
w: |
V:3
 [B,,B,] | [B,,B,][B,,F,][B,,F,] [B,,B,]2 [B,,B,]/[B,,B,]/ | [E,B,][E,G,][E,B,] [B,,B,]2 [B,,B,] | %3
w: ~|~ ~ ~ ~ ~ ~|~ ~ ~ ~ ~|
 [F,B,]F,F, [F,A,][F,A,][F,A,] | [B,,F,]3- [B,,F,]2 ([B,,B,]/[B,,B,]/) | %5
w: ~ ~ ~ ~ ~ ~|~ * ~ *|
 [B,,B,][B,,F,][B,,F,] [B,,B,]2 ([B,,B,]/[B,,B,]/) | [E,B,][E,G,][E,B,] [B,,B,]2 [B,,D]/[B,,D]/ | %7
w: ~ ~ ~ ~ ~ *|~ ~ ~ ~ ~ ~|
 [C,C][C,C][C,C] [C,G,][C,C][C,B,] | [F,A,]3- [F,A,]2 || [F,A,] | [B,,B,][B,,B,][B,,B,] [B,,B,]3 | %11
w: ~ ~ ~ ~ ~ ~|~ *|My|sheep know my voice,|
 [B,,B,]2 [B,,B,] [B,,B,]2 [D,B,] | [F,C][F,C][F,C] (C A,2) | %13
w: day by day, My|sheep know my voice *|
 [B,,B,]2 [B,,B,] [B,,B,]2 [B,,B,]/[B,,B,]/ | [E,B,][E,B,][E,B,] [E,B,]2 [G,B,] | %15
w: by day, They a- bide|in the fold, They go|
 B,B,B, B,2 [B,,B,] | [C,G,][C,G,][C,G,] [C,G,]2 [C,G,] | [F,A,][F,A,][F,A,] [F,A,]2 [F,A,] | %18
w: not a- stray, A- bide|go not a- stray, They|love me be- cause I|
 [B,,B,][B,,B,][B,,B,] [B,,B,]2 [B,,B,] | [B,,F,][B,,F,][B,,F,] [B,,B,]2 [B,,B,] | %20
w: made them my choice, They|love me be- cause I|
 [F,A,][F,A,][F,A,] [F,A,]2 [F,A,] | B,B,B, B,2 [B,,B,] | [D,B,][D,B,][D,B,] [D,B,]2 B, | %23
w: made them my choice, They|fol- low my call, They|fol- low my call, My|
 [E,B,][E,B,][E,B,] [E,B,]2 [E,B,] | [F,B,]3 [F,B,]2 F, | [B,,F,]6 |] %26
w: sheep know my voice. *|||
V:4
 x | x6 | x6 | x6 | x6 | x6 | x6 | x6 | x5 || x | x6 | x6 | x3 F,3 | x6 | x6 | B,B,B, B,2 x | x6 | %17
w: ||||||||||||day|||in the fold They||
 x6 | x6 | x6 | x6 | x6 | x6 | x6 | x6 | x6 |] %26
w: |||||||||

